Newaita-dark/apps/24/words.svg

<svg height="24" viewBox="0 0 24 24" width="24" xmlns="http://www.w3.org/2000/svg" xmlns:xlink="http://www.w3.org/1999/xlink"><linearGradient id="a" gradientTransform="matrix(.0558089 0 0 .0468795 -1.972752 10.079089)" gradientUnits="userSpaceOnUse" x1="254" x2="254" y1="233.5" y2="254.666672"><stop offset="0" stop-opacity=".27451"/><stop offset="1" stop-opacity="0"/></linearGradient><linearGradient id="b"><stop offset="0" stop-opacity=".313726"/><stop offset=".222222" stop-opacity=".27451"/><stop offset="1" stop-opacity="0"/></linearGradient><radialGradient id="c" cx="450.908936" cy="189.579361" gradientTransform="matrix(.00000013 -.0585994 -.105479 -.00000008 37.857636 47.696499)" gradientUnits="userSpaceOnUse" r="21.166656" xlink:href="#b"/><radialGradient id="d" cx="450.908936" cy="189.579361" gradientTransform="matrix(-.00000013 .0585994 .105479 .00000008 -14.042861 -5.645609)" gradientUnits="userSpaceOnUse" r="21.166656" xlink:href="#b"/><radialGradient id="e" cx="450.908936" cy="189.579361" gradientTransform="matrix(-.00000013 -.0585994 .105479 -.00000008 -14.042861 47.696499)" gradientUnits="userSpaceOnUse" r="21.166656" xlink:href="#b"/><radialGradient id="f" cx="450.908936" cy="189.579361" gradientTransform="matrix(.00000013 .0585994 -.105479 .00000008 37.857635 -5.64561)" gradientUnits="userSpaceOnUse" r="21.166656" xlink:href="#b"/><linearGradient id="g" gradientUnits="userSpaceOnUse" x1="11.907393" x2="11.907393" y1="21.02545025" y2="2.17207774998"><stop offset="0" stop-color="#e0e0e0"/><stop offset="1" stop-color="#eee"/></linearGradient><linearGradient id="h"><stop offset="0" stop-color="#81c784"/><stop offset="1" stop-color="#66bb6a"/></linearGradient><linearGradient id="i" gradientUnits="userSpaceOnUse" x1="19.39462197061" x2="19.39462197061" xlink:href="#h" y1="-12.17469092323" y2="6.6786808736"/><linearGradient id="j" gradientUnits="userSpaceOnUse" x1="12.89967593755" x2="12.89967593755" xlink:href="#h" y1="6.26524443751" y2="16.68421293748"/><path d="m5.707031 21.027344h12.402344v.992187h-12.402344zm0 0" fill="url(#a)"/><path d="m18.109375 21.027344h1.984375v-.996094h-1.984375zm0 0" fill="url(#c)"/><path d="m5.707031 21.027344h-1.984375v.992187h1.984375zm0 0" fill="url(#d)"/><path d="m5.707031 21.027344h-1.984375v-.996094h1.984375zm0 0" fill="url(#e)"/><path d="m18.109375 21.027344h1.984375v.992187h-1.984375zm0 0" fill="url(#f)"/><path d="m14.929688 2.171875h-9.96875c-.550782 0-.992188.441406-.992188.992187v16.867188c0 .550781.441406.996094.992188.996094h13.890624c.550782 0 .992188-.445313.992188-.996094v-13.351562zm0 0" fill="url(#g)"/><path d="m14.929688 2.171875 4.914062 4.507813v-3.515626c0-.550781-.441406-.992187-.992188-.992187zm0 0" fill="url(#i)"/><path d="m3.96875 19.785156v.246094c0 .550781.441406.996094.992188.996094h13.890624c.550782 0 .992188-.445313.992188-.996094v-.246094c0 .550782-.441406.992188-.992188.992188h-13.890624c-.550782 0-.992188-.441406-.992188-.992188zm0 0" fill-opacity=".235294"/><path d="m4.960938 2.171875c-.550782 0-.992188.441406-.992188.992187v.496094c0-.550781.441406-.992187.992188-.992187h9.96875l4.914062 4.507812v-.496093l-4.914062-4.507813zm0 0" fill="#fff"/><path d="m14.929688 2.171875.539062.496094h3.382812c.550782 0 .992188.441406.992188.992187v-.496094c0-.550781-.441406-.992187-.992188-.992187zm0 0" fill="#fff" fill-opacity=".392157"/><path d="m14.929688 2.171875 4.914062 4.507813v-.414063l-4.464844-4.09375zm0 0" fill-opacity=".235294"/><path d="m1203.664647 175.101398h-803.70282c-44.405211 0-79.992366 35.587155-79.992366 79.992365v1359.870211c0 44.40521 35.587155 80.307296 79.992366 80.307296h1119.893114c44.405211 0 79.992365-35.902086 79.992365-80.307296v-1076.432696zm0 0" fill="none" stroke="#212121" stroke-linecap="round" stroke-linejoin="round" stroke-width="11.338583" transform="scale(.0124035)"/><path d="m318.469588-168.671091 104.823323 96.157484v-74.992838c0-11.748878-9.415768-21.164646-21.164646-21.164646zm0 0" fill="none" stroke="#212121" stroke-linecap="round" stroke-linejoin="round" stroke-width="3" transform="matrix(.0468795 0 0 .0468795 0 10.079087)"/><path d="m7.691406 8.496094 1.238282 7.445312h.992187l1.488281-6.699218 1.488282 6.699218h.992187c1.738281-2.976562 2.234375-6.203125 2.234375-8.683594l-1.488281.246094c0 2.234375-.03125 4.960938-.992188 7.195313l-1.488281-6.945313-.992188.246094-1.488281 6.699219-1.242187-5.953125.746094-.992188zm0 0" fill="url(#j)"/><path d="m16.125 7.320312-1.488281.246094c0 2.234375-.03125 4.957032-.992188 7.195313l-1.488281-6.945313-.992188.246094-1.488281 6.699219-1.199219-5.757813-.042968.050782 1.242187 5.953124 1.488281-6.695312.992188-.25 1.488281 6.945312c.960938-2.234374.992188-4.960937.992188-7.191406l1.484375-.25c.003906-.082031.003906-.164062.003906-.246094zm-6.945312.496094-1.488282.742188.035156.230468 1.15625-.578124zm0 0" fill="#fff" fill-opacity=".470588"/><path d="m16.125 7.753906h-.007812c-.0625 2.40625-.601563 5.40625-2.226563 8.1875h-.992187l-1.488282-6.699218-1.488281 6.699218h-.992187l-1.164063-6.984375-.074219.035157 1.238282 7.445312h.992187l1.488281-6.699219 1.488282 6.699219h.992187c1.738281-2.976562 2.234375-6.203125 2.234375-8.683594zm-6.945312.496094-.597657.296875-.148437.199219.082031.386718zm0 0" fill-opacity=".235294"/><path d="m164.067666-33.767307 26.414144 158.818167h21.164645l31.746969-142.90302 31.746968 142.90302h21.164646c37.079792-63.493937 47.662115-132.320697 47.662115-185.232311l-31.746969 5.249499c0 47.662115-.666603 105.823227-21.164645 153.485342l-31.746968-148.152518-21.164646 5.249498-31.746968 142.90302-26.49747-126.987873 15.915147-21.164645zm0 0" fill="none" stroke="#212121" stroke-linecap="round" stroke-linejoin="round" stroke-width="3" transform="matrix(.0468795 0 0 .0468795 0 10.079087)"/></svg>

<?xml version="1.0" encoding="UTF-8"?>
<svg xmlns="http://www.w3.org/2000/svg" xmlns:xlink="http://www.w3.org/1999/xlink" width="24px" height="24px" viewBox="0 0 24 24" version="1.1">
<defs>
<linearGradient id="linear0" gradientUnits="userSpaceOnUse" x1="254" y1="233.5" x2="254" y2="254.666672" gradientTransform="matrix(0.0558089,0,0,0.0468795,-1.972752,10.079089)">
<stop offset="0" style="stop-color:rgb(0%,0%,0%);stop-opacity:0.27451;"/>
<stop offset="1" style="stop-color:rgb(0%,0%,0%);stop-opacity:0;"/>
</linearGradient>
<radialGradient id="radial0" gradientUnits="userSpaceOnUse" cx="450.908936" cy="189.579361" fx="450.908936" fy="189.579361" r="21.166656" gradientTransform="matrix(0.000000130628,-0.0585994,-0.105479,-0.0000000761539,37.857636,47.696499)">
<stop offset="0" style="stop-color:rgb(0%,0%,0%);stop-opacity:0.313726;"/>
<stop offset="0.222222" style="stop-color:rgb(0%,0%,0%);stop-opacity:0.27451;"/>
<stop offset="1" style="stop-color:rgb(0%,0%,0%);stop-opacity:0;"/>
</radialGradient>
<radialGradient id="radial1" gradientUnits="userSpaceOnUse" cx="450.908936" cy="189.579361" fx="450.908936" fy="189.579361" r="21.166656" gradientTransform="matrix(-0.000000130628,0.0585994,0.105479,0.0000000761539,-14.042861,-5.645609)">
<stop offset="0" style="stop-color:rgb(0%,0%,0%);stop-opacity:0.313726;"/>
<stop offset="0.222222" style="stop-color:rgb(0%,0%,0%);stop-opacity:0.27451;"/>
<stop offset="1" style="stop-color:rgb(0%,0%,0%);stop-opacity:0;"/>
</radialGradient>
<radialGradient id="radial2" gradientUnits="userSpaceOnUse" cx="450.908936" cy="189.579361" fx="450.908936" fy="189.579361" r="21.166656" gradientTransform="matrix(-0.000000130628,-0.0585994,0.105479,-0.0000000761539,-14.042861,47.696499)">
<stop offset="0" style="stop-color:rgb(0%,0%,0%);stop-opacity:0.313726;"/>
<stop offset="0.222222" style="stop-color:rgb(0%,0%,0%);stop-opacity:0.27451;"/>
<stop offset="1" style="stop-color:rgb(0%,0%,0%);stop-opacity:0;"/>
</radialGradient>
<radialGradient id="radial3" gradientUnits="userSpaceOnUse" cx="450.908936" cy="189.579361" fx="450.908936" fy="189.579361" r="21.166656" gradientTransform="matrix(0.000000130628,0.0585994,-0.105479,0.0000000761539,37.857635,-5.64561)">
<stop offset="0" style="stop-color:rgb(0%,0%,0%);stop-opacity:0.313726;"/>
<stop offset="0.222222" style="stop-color:rgb(0%,0%,0%);stop-opacity:0.27451;"/>
<stop offset="1" style="stop-color:rgb(0%,0%,0%);stop-opacity:0;"/>
</radialGradient>
<linearGradient id="linear1" gradientUnits="userSpaceOnUse" x1="254" y1="233.5" x2="254" y2="-168.666672" gradientTransform="matrix(0.0468795,0,0,0.0468795,0,10.079087)">
<stop offset="0" style="stop-color:rgb(87.843138%,87.843138%,87.843138%);stop-opacity:1;"/>
<stop offset="1" style="stop-color:rgb(93.333334%,93.333334%,93.333334%);stop-opacity:1;"/>
</linearGradient>
<linearGradient id="linear2" gradientUnits="userSpaceOnUse" x1="413.712219" y1="-474.701691" x2="413.712219" y2="-72.535034" gradientTransform="matrix(0.0468795,0,0,0.0468795,0,10.079087)">
<stop offset="0" style="stop-color:rgb(50.588238%,78.039217%,51.764709%);stop-opacity:1;"/>
<stop offset="1" style="stop-color:rgb(40.000001%,73.333335%,41.568628%);stop-opacity:1;"/>
</linearGradient>
<linearGradient id="linear3" gradientUnits="userSpaceOnUse" x1="280.458344" y1="-89.291664" x2="280.458344" y2="132.958328" gradientTransform="matrix(0.0468795,0,0,0.0468795,-0.248071,10.451193)">
<stop offset="0" style="stop-color:rgb(50.588238%,78.039217%,51.764709%);stop-opacity:1;"/>
<stop offset="1" style="stop-color:rgb(40.000001%,73.333335%,41.568628%);stop-opacity:1;"/>
</linearGradient>
</defs>
<g id="surface1">
<path style=" stroke:none;fill-rule:nonzero;fill:url(#linear0);" d="M 5.707031 21.027344 L 18.109375 21.027344 L 18.109375 22.019531 L 5.707031 22.019531 Z M 5.707031 21.027344 "/>
<path style=" stroke:none;fill-rule:nonzero;fill:url(#radial0);" d="M 18.109375 21.027344 L 20.09375 21.027344 L 20.09375 20.03125 L 18.109375 20.03125 Z M 18.109375 21.027344 "/>
<path style=" stroke:none;fill-rule:nonzero;fill:url(#radial1);" d="M 5.707031 21.027344 L 3.722656 21.027344 L 3.722656 22.019531 L 5.707031 22.019531 Z M 5.707031 21.027344 "/>
<path style=" stroke:none;fill-rule:nonzero;fill:url(#radial2);" d="M 5.707031 21.027344 L 3.722656 21.027344 L 3.722656 20.03125 L 5.707031 20.03125 Z M 5.707031 21.027344 "/>
<path style=" stroke:none;fill-rule:nonzero;fill:url(#radial3);" d="M 18.109375 21.027344 L 20.09375 21.027344 L 20.09375 22.019531 L 18.109375 22.019531 Z M 18.109375 21.027344 "/>
<path style=" stroke:none;fill-rule:nonzero;fill:url(#linear1);" d="M 14.929688 2.171875 L 4.960938 2.171875 C 4.410156 2.171875 3.96875 2.613281 3.96875 3.164062 L 3.96875 20.03125 C 3.96875 20.582031 4.410156 21.027344 4.960938 21.027344 L 18.851562 21.027344 C 19.402344 21.027344 19.84375 20.582031 19.84375 20.03125 L 19.84375 6.679688 Z M 14.929688 2.171875 "/>
<path style=" stroke:none;fill-rule:nonzero;fill:url(#linear2);" d="M 14.929688 2.171875 L 19.84375 6.679688 L 19.84375 3.164062 C 19.84375 2.613281 19.402344 2.171875 18.851562 2.171875 Z M 14.929688 2.171875 "/>
<path style=" stroke:none;fill-rule:nonzero;fill:rgb(0%,0%,0%);fill-opacity:0.235294;" d="M 3.96875 19.785156 L 3.96875 20.03125 C 3.96875 20.582031 4.410156 21.027344 4.960938 21.027344 L 18.851562 21.027344 C 19.402344 21.027344 19.84375 20.582031 19.84375 20.03125 L 19.84375 19.785156 C 19.84375 20.335938 19.402344 20.777344 18.851562 20.777344 L 4.960938 20.777344 C 4.410156 20.777344 3.96875 20.335938 3.96875 19.785156 Z M 3.96875 19.785156 "/>
<path style=" stroke:none;fill-rule:nonzero;fill:rgb(100%,100%,100%);fill-opacity:1;" d="M 4.960938 2.171875 C 4.410156 2.171875 3.96875 2.613281 3.96875 3.164062 L 3.96875 3.660156 C 3.96875 3.109375 4.410156 2.667969 4.960938 2.667969 L 14.929688 2.667969 L 19.84375 7.175781 L 19.84375 6.679688 L 14.929688 2.171875 Z M 4.960938 2.171875 "/>
<path style=" stroke:none;fill-rule:nonzero;fill:rgb(100%,100%,100%);fill-opacity:0.392157;" d="M 14.929688 2.171875 L 15.46875 2.667969 L 18.851562 2.667969 C 19.402344 2.667969 19.84375 3.109375 19.84375 3.660156 L 19.84375 3.164062 C 19.84375 2.613281 19.402344 2.171875 18.851562 2.171875 Z M 14.929688 2.171875 "/>
<path style=" stroke:none;fill-rule:nonzero;fill:rgb(0%,0%,0%);fill-opacity:0.235294;" d="M 14.929688 2.171875 L 19.84375 6.679688 L 19.84375 6.265625 L 15.378906 2.171875 Z M 14.929688 2.171875 "/>
<path style="fill:none;stroke-width:11.338583;stroke-linecap:round;stroke-linejoin:round;stroke:rgb(12.941177%,12.941177%,12.941177%);stroke-opacity:1;stroke-miterlimit:4;" d="M 1203.664647 175.101398 L 399.961827 175.101398 C 355.556616 175.101398 319.969461 210.688553 319.969461 255.093763 L 319.969461 1614.963974 C 319.969461 1659.369184 355.556616 1695.27127 399.961827 1695.27127 L 1519.854941 1695.27127 C 1564.260152 1695.27127 1599.847306 1659.369184 1599.847306 1614.963974 L 1599.847306 538.531278 Z M 1203.664647 175.101398 " transform="matrix(0.0124035,0,0,0.0124035,0,0)"/>
<path style="fill:none;stroke-width:3;stroke-linecap:round;stroke-linejoin:round;stroke:rgb(12.941177%,12.941177%,12.941177%);stroke-opacity:1;stroke-miterlimit:4;" d="M 318.469588 -168.671091 L 423.292911 -72.513607 L 423.292911 -147.506445 C 423.292911 -159.255323 413.877143 -168.671091 402.128265 -168.671091 Z M 318.469588 -168.671091 " transform="matrix(0.0468795,0,0,0.0468795,0,10.079087)"/>
<path style=" stroke:none;fill-rule:nonzero;fill:url(#linear3);" d="M 7.691406 8.496094 L 8.929688 15.941406 L 9.921875 15.941406 L 11.410156 9.242188 L 12.898438 15.941406 L 13.890625 15.941406 C 15.628906 12.964844 16.125 9.738281 16.125 7.257812 L 14.636719 7.503906 C 14.636719 9.738281 14.605469 12.464844 13.644531 14.699219 L 12.15625 7.753906 L 11.164062 8 L 9.675781 14.699219 L 8.433594 8.746094 L 9.179688 7.753906 Z M 7.691406 8.496094 "/>
<path style=" stroke:none;fill-rule:nonzero;fill:rgb(100%,100%,100%);fill-opacity:0.470588;" d="M 16.125 7.320312 L 14.636719 7.566406 C 14.636719 9.800781 14.605469 12.523438 13.644531 14.761719 L 12.15625 7.816406 L 11.164062 8.0625 L 9.675781 14.761719 L 8.476562 9.003906 L 8.433594 9.054688 L 9.675781 15.007812 L 11.164062 8.3125 L 12.15625 8.0625 L 13.644531 15.007812 C 14.605469 12.773438 14.636719 10.046875 14.636719 7.816406 L 16.121094 7.566406 C 16.125 7.484375 16.125 7.402344 16.125 7.320312 Z M 9.179688 7.816406 L 7.691406 8.558594 L 7.726562 8.789062 L 8.882812 8.210938 Z M 9.179688 7.816406 "/>
<path style=" stroke:none;fill-rule:nonzero;fill:rgb(0%,0%,0%);fill-opacity:0.235294;" d="M 16.125 7.753906 L 16.117188 7.753906 C 16.054688 10.160156 15.515625 13.160156 13.890625 15.941406 L 12.898438 15.941406 L 11.410156 9.242188 L 9.921875 15.941406 L 8.929688 15.941406 L 7.765625 8.957031 L 7.691406 8.992188 L 8.929688 16.4375 L 9.921875 16.4375 L 11.410156 9.738281 L 12.898438 16.4375 L 13.890625 16.4375 C 15.628906 13.460938 16.125 10.234375 16.125 7.753906 Z M 9.179688 8.25 L 8.582031 8.546875 L 8.433594 8.746094 L 8.515625 9.132812 Z M 9.179688 8.25 "/>
<path style="fill:none;stroke-width:3;stroke-linecap:round;stroke-linejoin:round;stroke:rgb(12.941177%,12.941177%,12.941177%);stroke-opacity:1;stroke-miterlimit:4;" d="M 164.067666 -33.767307 L 190.48181 125.05086 L 211.646455 125.05086 L 243.393424 -17.85216 L 275.140392 125.05086 L 296.305038 125.05086 C 333.38483 61.556923 343.967153 -7.269837 343.967153 -60.181451 L 312.220184 -54.931952 C 312.220184 -7.269837 311.553581 50.891275 291.055539 98.55339 L 259.308571 -49.599128 L 238.143925 -44.34963 L 206.396957 98.55339 L 179.899487 -28.434483 L 195.814634 -49.599128 Z M 164.067666 -33.767307 " transform="matrix(0.0468795,0,0,0.0468795,0,10.079087)"/>
</g>
</svg>
